svg/blueberries.svg

<?xml version="1.0" encoding="UTF-8" standalone="no"?>
<svg
   width="100%"
   height="100%"
   viewBox="0 0 128 128"
   version="1.1"
   xml:space="preserve"
   style="fill-rule:evenodd;clip-rule:evenodd;stroke-linejoin:round;stroke-miterlimit:2;"
   id="svg8"
   sodipodi:docname="blueberries.svg"
   inkscape:version="1.3 (0e150ed6c4, 2023-07-21)"
   xmlns:inkscape="http://www.inkscape.org/namespaces/inkscape"
   xmlns:sodipodi="http://sodipodi.sourceforge.net/DTD/sodipodi-0.dtd"
   xmlns="http://www.w3.org/2000/svg"
   xmlns:svg="http://www.w3.org/2000/svg"><defs
   id="defs8">&#10;        &#10;        &#10;        &#10;    </defs><sodipodi:namedview
   id="namedview8"
   pagecolor="#ffffff"
   bordercolor="#000000"
   borderopacity="0.25"
   inkscape:showpageshadow="2"
   inkscape:pageopacity="0.0"
   inkscape:pagecheckerboard="0"
   inkscape:deskcolor="#d1d1d1"
   inkscape:zoom="2.0273438"
   inkscape:cx="65.356455"
   inkscape:cy="75.22158"
   inkscape:window-width="1366"
   inkscape:window-height="697"
   inkscape:window-x="-8"
   inkscape:window-y="-8"
   inkscape:window-maximized="1"
   inkscape:current-layer="svg8" />&#10;    <g
   id="g1">&#10;            <path
   d="m 21.1,23.79 c -0.46,0.11 -2.08,-1.23 -7.01,-0.76 -1.87,0.18 -2.55,0.66 -2.55,0.66 0,0 0.18,-2.66 2.42,-4.45 1.57,-1.26 3.01,-1.75 4,-1.94 0.71,-0.14 1.16,-0.81 1.05,-1.53 -0.27,-1.71 -0.32,-4.52 1.83,-5.95 2.02,-1.35 4.19,-0.42 5.52,0.46 0.66,0.44 1.54,0.23 1.92,-0.48 0.5,-0.94 1.33,-2.17 2.62,-3.17 2.51,-1.94 4.85,-0.62 4.85,-0.62 0,0 -2.15,1.86 -2.25,6.6 -0.01,0.52 0.19,1.82 -0.09,2.28 -3.28,2.33 -5.38,4.13 -8.66,6.47 -1.37,0.98 -1.75,1.24 -3.14,2.19 -0.18,0.13 -0.35,0.2 -0.51,0.24 z"
   style="fill:#196ca2;fill-opacity:1;fill-rule:nonzero"
   id="path1" />&#10;            <circle
   cx="43.830002"
   cy="39.439999"
   r="30.219999"
   style="fill:#196ca2;fill-opacity:1"
   id="circle1" />&#10;        </g><path
   id="path11"
   style="fill:#0c4268;fill-opacity:1;stroke:none;stroke-width:4;stroke-linecap:round"
   d="M 70.660156 25.550781 C 68.189884 26.890689 64.578716 29.202692 61.238281 32.755859 C 55.487247 38.873143 53.123526 47.954524 52.050781 49.027344 C 50.978036 50.100164 48.901837 48.486352 40.601562 48.072266 C 32.301288 47.658173 27.025576 49.369336 18.8125 54.048828 C 18.463539 54.247652 18.139391 54.4754 17.826172 54.712891 A 30.219999 30.219999 0 0 0 43.830078 69.660156 A 30.219999 30.219999 0 0 0 74.050781 39.439453 A 30.219999 30.219999 0 0 0 70.660156 25.550781 z " /><g
   id="g4">&#10;            <circle
   cx="90.389999"
   cy="59.75"
   r="33.119999"
   style="fill:#196ca2;fill-opacity:1"
   id="circle2" />&#10;            <path
   d="m 100.36,46.17 c 0,0 3.48,8 9.12,6.08 3.38,-1.15 2.5,-6.79 2.5,-6.79 0,0 8.99,-0.41 8.58,-4.36 -0.42,-4.05 -6.07,-5.37 -6.07,-5.37 0,0 -0.49,-5.85 -2.51,-7.4 -3.37,-2.57 -7.56,1.42 -7.56,1.42 0,0 -3.23,-5.41 -8.11,-4.36 -3.91,0.84 -1.77,9.2 -1.77,9.2 0,0 -5.66,-0.07 -3.31,4.58 2.57,5.1 9.13,7 9.13,7 z"
   style="fill:#42ade7;fill-rule:nonzero"
   id="path2" />&#10;            <g
   transform="matrix(0.4494,-0.8933,0.8933,0.4494,22.5023,114.837)"
   id="g2">&#10;                &#10;            </g>&#10;            <g
   transform="matrix(0.5618,-0.8273,0.8273,0.5618,12.2862,103.529)"
   id="g3">&#10;                <ellipse
   cx="103.87"
   cy="40.169998"
   rx="5.52"
   ry="6.3600001"
   style="fill:#196ca2;fill-opacity:1"
   id="ellipse3" />&#10;            </g>&#10;        </g><path
   id="circle4-2"
   style="clip-rule:evenodd;fill:#0c4268;fill-opacity:1;fill-rule:evenodd;stroke-width:1;stroke-linejoin:round;stroke-miterlimit:2"
   d="m 57.732552,52.473046 c -0.454885,2.134897 -0.775127,5.094301 -0.802135,7.276954 0.01681,1.288117 0.447881,2.574156 0.614505,3.851562 1.335881,9.606673 7.459886,18.737919 15.574219,24.357422 1.932099,1.167883 3.978548,2.135152 6.107421,2.886719 C 78.736865,67.877326 67.864126,57.046962 57.732552,52.473046 Z"
   sodipodi:nodetypes="cccccc" /><g
   id="g7">&#10;            <circle
   cx="38.669998"
   cy="88.239998"
   r="34.18"
   style="fill:#196ca2"
   id="circle4" />&#10;            <path
   d="m 35.42,81.76 c 0,0 -4.05,7.91 -11.4,5.77 -3.4,-0.99 -1.81,-6.31 -1.81,-6.31 0,0 -4.75,-0.39 -6.47,-4.48 -1.54,-3.66 6.7,-5.12 6.7,-5.12 0,0 -3.26,-6 0.19,-8.42 3.45,-2.42 7.21,3.02 7.21,3.02 0,0 3.07,-8.86 7.06,-5.93 3.82,2.81 2.85,10.91 2.85,10.91 0,0 6.88,1.16 4.56,5.81 -2.56,5.12 -8.89,4.75 -8.89,4.75 z"
   style="fill:#42ade7;fill-rule:nonzero"
   id="path4" />&#10;            <g
   transform="matrix(0.9771,-0.2128,0.2128,0.9771,-15.3048,8.1493)"
   id="g5">&#10;                &#10;            </g>&#10;            <g
   transform="matrix(0.9771,-0.2128,0.2128,0.9771,-15.3911,8.422)"
   id="g6">&#10;                <ellipse
   cx="31.42"
   cy="75.699997"
   rx="6.5700002"
   ry="6.3000002"
   style="fill:#185987"
   id="ellipse5" />&#10;            </g>&#10;        </g>&#10;</svg>

<?xml version="1.0" encoding="UTF-8" standalone="no"?>
<!DOCTYPE svg PUBLIC "-//W3C//DTD SVG 1.1//EN" "http://www.w3.org/Graphics/SVG/1.1/DTD/svg11.dtd">
<svg width="100%" height="100%" viewBox="0 0 128 128" version="1.1" xmlns="http://www.w3.org/2000/svg" xmlns:xlink="http://www.w3.org/1999/xlink" xml:space="preserve" xmlns:serif="http://www.serif.com/" style="fill-rule:evenodd;clip-rule:evenodd;stroke-linejoin:round;stroke-miterlimit:2;">
    <g>
        <g>
            <path d="M21.1,23.79C20.64,23.9 19.02,22.56 14.09,23.03C12.22,23.21 11.54,23.69 11.54,23.69C11.54,23.69 11.72,21.03 13.96,19.24C15.53,17.98 16.97,17.49 17.96,17.3C18.67,17.16 19.12,16.49 19.01,15.77C18.74,14.06 18.69,11.25 20.84,9.82C22.86,8.47 25.03,9.4 26.36,10.28C27.02,10.72 27.9,10.51 28.28,9.8C28.78,8.86 29.61,7.63 30.9,6.63C33.41,4.69 35.75,6.01 35.75,6.01C35.75,6.01 33.6,7.87 33.5,12.61C33.49,13.13 33.69,14.43 33.41,14.89C30.13,17.22 28.03,19.02 24.75,21.36C23.38,22.34 23,22.6 21.61,23.55C21.43,23.68 21.26,23.75 21.1,23.79Z" style="fill:rgb(63,81,181);fill-rule:nonzero;"/>
            <circle cx="43.83" cy="39.44" r="30.22" style="fill:rgb(63,81,181);"/>
        </g>
        <g>
            <circle cx="90.39" cy="59.75" r="33.12" style="fill:rgb(80,100,201);"/>
            <path d="M100.36,46.17C100.36,46.17 103.84,54.17 109.48,52.25C112.86,51.1 111.98,45.46 111.98,45.46C111.98,45.46 120.97,45.05 120.56,41.1C120.14,37.05 114.49,35.73 114.49,35.73C114.49,35.73 114,29.88 111.98,28.33C108.61,25.76 104.42,29.75 104.42,29.75C104.42,29.75 101.19,24.34 96.31,25.39C92.4,26.23 94.54,34.59 94.54,34.59C94.54,34.59 88.88,34.52 91.23,39.17C93.8,44.27 100.36,46.17 100.36,46.17Z" style="fill:rgb(128,146,242);fill-rule:nonzero;"/>
            <g transform="matrix(0.4494,-0.8933,0.8933,0.4494,22.5023,114.837)">
                <ellipse cx="104.42" cy="39.16" rx="6.45" ry="7.34" style="fill:rgb(47,62,130);"/>
            </g>
            <g transform="matrix(0.5618,-0.8273,0.8273,0.5618,12.2862,103.529)">
                <ellipse cx="103.87" cy="40.17" rx="5.52" ry="6.36" style="fill:rgb(80,100,201);"/>
            </g>
        </g>
        <g>
            <circle cx="38.67" cy="88.24" r="34.18" style="fill:rgb(102,120,217);"/>
            <path d="M35.42,81.76C35.42,81.76 31.37,89.67 24.02,87.53C20.62,86.54 22.21,81.22 22.21,81.22C22.21,81.22 17.46,80.83 15.74,76.74C14.2,73.08 22.44,71.62 22.44,71.62C22.44,71.62 19.18,65.62 22.63,63.2C26.08,60.78 29.84,66.22 29.84,66.22C29.84,66.22 32.91,57.36 36.9,60.29C40.72,63.1 39.75,71.2 39.75,71.2C39.75,71.2 46.63,72.36 44.31,77.01C41.75,82.13 35.42,81.76 35.42,81.76Z" style="fill:rgb(154,167,237);fill-rule:nonzero;"/>
            <g transform="matrix(0.9771,-0.2128,0.2128,0.9771,-15.3048,8.1493)">
                <ellipse cx="30.2" cy="75.16" rx="7.77" ry="7.17" style="fill:rgb(44,63,158);"/>
            </g>
            <g transform="matrix(0.9771,-0.2128,0.2128,0.9771,-15.3911,8.422)">
                <ellipse cx="31.42" cy="75.7" rx="6.57" ry="6.3" style="fill:rgb(83,102,207);"/>
            </g>
        </g>
    </g>
</svg>
